X: 307
T: Moldavian Hora
R: hora
O: Moldavia
Q: 1/4=82
B: German Goldenshteyn "Shpilt klezmorimlach klingen zoln di gesalach" New York 2003 v.3 #7
Z: 2012 John Chambers <jc:trillian.mit.edu>
M: 2/4
L: 1/16
K: Am
|:\
~c2(A^G) ABcA | (Ac)B2 ~B3B | d2cB cAB^G |[1 AE^F^G ABcA :|[2 AE^F^G A2z2 |]
|:\
A,B,C^D E^FGE | (^GB)A ~A2A^F | =G2A^F GEF^D | EB,^C^D E^FGE | (GA)^cA (GA)dA |
(^GA)d^c (_BA)=GF | (^DE)FE (DE)FE |[1 (^DE)FE (DC)B,C :|[2 (^DC)B,C A,EF=D |]
|: {^D}E4- E(Bc)c | c2 B6 | (3{B}A2^G2A2 (3B2d2B2 | c4- cE_ED | ^C4- CCDE | G2EF- FFE^D |
!coda![1 EFE^D E4 | (3E2F2=D2 E4 :|[2 ~E2^DE EB,C^G, | A,2 z2 z4 !coda!|]\
["Fine" E2(E^D) EB,C^G, | A,2{^D}E2 A2z2 |]
